icons/baby_male_0306m_fill.svg

<svg width="48" height="48" viewBox="0 0 48 48" fill="none" xmlns="http://www.w3.org/2000/svg">
<path fill-rule="evenodd" clip-rule="evenodd" d="M16 7C16 6.44772 16.4477 6 17 6H21C21.5523 6 22 6.44772 22 7V11C22 11.5523 21.5523 12 21 12C20.4477 12 20 11.5523 20 11V9.41436L16.8908 12.5236C17.5892 13.5044 18 14.7042 18 16C18 19.3137 15.3137 22 12 22C8.68629 22 6 19.3137 6 16C6 12.6863 8.68629 10 12 10C13.2958 10 14.4957 10.4108 15.4765 11.1093L18.5858 8H17C16.4477 8 16 7.55228 16 7ZM16 16C16 18.2091 14.2091 20 12 20C9.79086 20 8 18.2091 8 16C8 13.7909 9.79086 12 12 12C14.2091 12 16 13.7909 16 16Z" fill="black"/>
<path d="M18.4 36.7999C19.3941 35.4744 19.1255 33.594 17.8 32.5999C16.4745 31.6058 14.5941 31.8744 13.6 33.1999L11.5 35.9999H9C7.34315 35.9999 6 37.3431 6 38.9999C6 40.6568 7.34315 41.9999 9 41.9999H13C13.9443 41.9999 14.8334 41.5554 15.4 40.7999L18.4 36.7999Z" fill="black"/>
<path d="M41.2603 37.2146C40.7864 36.6887 40.144 36.3934 39.474 36.3934H36.2699L35.7002 36.1313C35.2718 35.6552 34.7654 35.0151 34.2137 34.3175C32.8856 32.6386 31.2946 30.6273 29.895 29.7719C29.0572 29.2597 28.1152 28.994 27.1587 29.0001H21.5L22.0859 42H26.8159C27.5967 41.9986 28.3694 41.8231 29.0878 41.4836C29.8066 41.1442 30.4566 40.6477 30.999 40.0237L31.5685 39.3686C31.7926 39.6176 32.0114 39.967 32.2386 40.33C32.7407 41.1318 33.2843 42 34.0189 42H39.6078C40.2779 42 40.7864 41.7047 41.2603 41.179C41.7339 40.6532 42.0001 39.9401 42.0001 39.1967C42.0001 38.4533 41.7339 37.7402 41.2603 37.2146Z" fill="black"/>
<path d="M33.5 28C37.0899 28 40 25.0899 40 21.5C40 17.9101 37.0899 15 33.5 15C29.9101 15 27 17.9101 27 21.5C27 25.0899 29.9101 28 33.5 28Z" fill="black"/>
</svg>

<svg
  xmlns="http://www.w3.org/2000/svg"
  width="24"
  height="24"
  viewBox="0 0 24 24"
  fill="none"
  stroke="currentColor"
  stroke-width="2"
  stroke-linecap="round"
  stroke-linejoin="round"
>
  <path
    fill-rule="evenodd"
    d="M16 7a1 1 0 0 1 1-1h4a1 1 0 0 1 1 1v4a1 1 0 1 1-2 0V9.414l-3.11 3.11a6 6 0 1 1-1.414-1.414L18.587 8H17a1 1 0 0 1-1-1m0 9a4 4 0 1 1-8 0 4 4 0 0 1 8 0"
    clip-rule="evenodd"
  />
  <path d="M18.4 36.8a3 3 0 1 0-4.8-3.6L11.5 36H9a3 3 0 0 0 0 6h4a3 3 0 0 0 2.4-1.2z" />
  <path d="M41.26 37.215c-.474-.526-1.116-.822-1.786-.822H36.27l-.57-.262c-.428-.476-.935-1.116-1.486-1.813-1.328-1.68-2.92-3.69-4.319-4.546A5.17 5.17 0 0 0 27.159 29H21.5l.586 13h4.73a5.3 5.3 0 0 0 2.272-.516 5.85 5.85 0 0 0 1.911-1.46l.57-.655c.224.249.442.598.67.961.502.802 1.045 1.67 1.78 1.67h5.589c.67 0 1.178-.295 1.652-.821s.74-1.239.74-1.982c0-.744-.266-1.457-.74-1.982" />
  <path d="M33.5 28a6.5 6.5 0 1 0 0-13 6.5 6.5 0 0 0 0 13" />
</svg>
